X:1
T:Cavatina
T:Composed by Stanley Myers (1930-1993) Performaned and arranged by John Williams (1941 - ) Encoded by Jonis-2pir Tabulated by contact@emmanuelistace.be 
C:Stanley Myers
%%score { ( 1 2 5 7 ) | ( 3 4 6 8 ) }
L:1/8
Q:1/4=80
M:3/4
K:E
V:1 treble-8 nm="Classical Guitar" snm="Guit."
V:2 treble-8 
V:5 treble-8 
V:7 treble-8 
V:3 tab stafflines=6 strings=E2,A2,D3,G3,B3,E4 nostems 
V:4 tab stafflines=6 strings=E2,A2,D3,G3,B3,E4 nostems 
V:6 tab stafflines=6 strings=E2,A2,D3,G3,B3,E4 nostems 
V:8 tab stafflines=6 strings=E2,A2,D3,G3,B3,E4 nostems 
V:1
 E,GBeBG | DGdgdG | Cceaec | Fceaec | B,AeaeA | B,FAdAF | E,BdgdB | E,GBd B2 | A,EAcAE | =DFAcAF | %10
 =G,=D=GBGD | =CE=GBGE | B,FABAF | B,FABAF | AFGEGB | eBegbd' | CBegeB | FBegeB- | B3 ^afB | %19
 B,Bdg c'b | F,EAcAE | B,FAdAF | E,EBdBE | E,EBd ef!dacoda! || A,EAcAE | =DAcfcA | F^AcfcA | %27
 ^DBdfdB | =DB=dfdB | =C=GBeBG | (e'=c'c'=d'd'b | b=c'c'abc') | ([ee']=cc=ddB | B=cAFE=C | %34
 B,A,=G,F,G,A,) |[K:E] ^A,EcfcE | B,F=df B,C | _A,=F_B=dBF | _G,(_B, G,4) | _D_B_e=geB | _C_E- E4 | %41
[K:E] ^G,=E=B=eBE | G,EBeBE | F,B,EAEB, | F,B,DADB, | E,B,=DGDB, | A,6 | F,ABeBA | B,AFdBA | %49
 [E,A]FGDEG | BGBega!D.C.!!dacoda! ||O A,EAcAE | =DFAcAF | =G,=D=GBGD | =CE=GBGE | F,CEAEC | %56
 B,FABAF | [E,A]FGDEG | BGBegb |[Q:1/4=70] !arpeggio![CBeg]6 | !arpeggio![F,CEA]6 | %61
 !arpeggio![B,FA]6 | [FA]2 G2 x2 |] %63
V:2
 b6 | b6 | a/b/c'- c'4- | c'6 | a/b/c'- c'4- | c'4- (c'b/a/ | b6) | x5 ((a/g/) | g6) | f4- f>e | %10
 f6 | e6 | e6- | e2 f2 d2 | e6 | x6 | e'6 | e'4- e'd'/c'/ | (c'd'/e'/ d'4) | x6 | a6 | a2 b2 f2 | %22
 g6 | z6 || g6 | a6 | ^a6 | b6 | b6 | e'6 | [B,F=c]2 z4 | x6 | x6 | x6 | x6 |[K:E] x6 | B,3 F,3 | %37
 =D4 x2 | =F2 _E_B,EF | =G6 | _B2 _A_EAB |[K:E] (=B6 | (B4) B>)c | (B6 | (B4) B>)c | (B6 | %46
 B)cAGFE | E6 | x2 F2 D2 | E2 x4 | x6 || g6 | f4- f>e | f6 | e6 | e6- | e2 f2 d2 | e6 | x6 | %59
 (d'2 e'4) | (!arpeggio!d2 e4) | ef/g/ f2 e2 | !fermata!e6 |] %63
V:3
 !6!E,, !4!G, !3!B, !2!E !3!B, !4!G, | !5!D, !4!G, !3!D !2!G !3!D !4!G, | %2
 !6!C, !4!C !3!E !2!A !3!E !4!C | !5!F, !4!C !3!E !2!A !3!E !4!C | %4
 !6!B,, !4!A, !3!E !2!A !3!E !4!A, | !6!B,, !5!F, !4!A, !3!D !4!A, !5!F, | %6
 !6!E,, !4!B, !3!D !2!G !3!D !4!B, | !6!E,, !4!G, !3!B, !2!D !3!B, !4!G, | %8
 !5!A,, !4!E, !3!A, !2!C !3!A, !4!E, | !5!^^C, !4!F, !3!A, !2!C !3!A, !4!F, | %10
 !6!=G,, !4!=D, !3!=G, !2!B, !3!G, !4!D, | !5!=C, !4!E, !3!=G, !2!B, !3!G, !4!E, | %12
 !5!B,, !4!F, !3!A, !2!B, !3!A, !4!F, | !5!B,, !4!F, !3!A, !3!B, !3!A, !4!F, | %14
 !4!A, !5!F, !4!G, !5!E, !4!G, !4!B, | !3!E !4!B, !3!E !2!G !2!B !1!d | %16
 !6!C, !4!B, !3!E !2!G !3!E !4!B, | !5!F, !4!B, !3!E !2!G !3!E !4!B, | !4!B,3 !2!^A !3!F !4!B, | %19
 !6!B,, !4!B, !3!D !2!G x2 | !6!F,, !4!E, !3!A, !2!C !3!A, !4!E, | %21
 !6!B,, !5!F, !4!A, !3!D !4!A, !5!F, | !6!E,, !5!E, !4!B, !3!D !4!B, !5!E, | %23
 !6!E,, !5!E, !4!B, !3!D !3!E !2!F || !5!A,, !4!E, !3!A, !2!C !3!A, !4!E, | %25
 !5!=D, !4!A, !3!C !2!F !3!C !4!A, | !5!F, !4!_B, !3!C !2!F !3!C !4!^A, | %27
 !5!D, !4!B, !3!D !2!F !3!D !4!B, | !6!=D, !4!B, !3!=D !2!F !3!D !4!B, | %29
 !6!=C, !5!=G, !4!B, !3!E !4!B, !5!G, | (!1!e !2!=c !2!c !2!^^c !2!=d !2!B | %31
 !2!B !2!^B !2!B !3!A !3!=B !2!=c) | ([!3!E!1!e]/8 x/8 x/4 x/ !4!=C !4!C !4!=D !4!D !4!B, | %33
 !4!B, !4!=C !4!A, !4!F, !4!E, !5!=C, | !5!B,, !6!A,, !6!=G,, !6!F,, !6!G,, !6!A,,) | %35
[K:E] x !5!E, !3!C !2!F !3!C !5!E, | !5!B,, !4!F, !2!=D !1!F !5!B,, !5!C, | %37
 !6!G,, !4!=F, !3!_B, !2!=D !3!B, !4!F, | !6!_G,, !5!_B,, !6!G,,4 | %39
 !5!_D, !3!_B, !2!_E !1!=G !2!E !3!B, | !6!B,, !5!D, x x x2 | %41
[K:E] !6!^G,, !5!E, !4!B, !3!E !4!B, !5!E, | !6!G,, !4!E, !3!B, !1!E !3!B, !4!E, | %43
 !6!F,, !5!B,, !4!E, !3!A, !4!E, !5!B,, | !6!F,, !5!B,, !4!D, !3!A, !4!D, !5!B,, | %45
 !6!E,, !5!B,, !4!=D, !3!G, !4!D, !5!B,, | !5!A,,6 | !6!F,, !3!A, !2!B, !1!E !2!B, !3!A, | %48
 !5!B,, !3!A, !4!F, !2!D !2!B, !3!A, | [!6!E,,!3!A,] !4!F, !3!G, !4!D, !4!E, !3!G, | %50
 !2!B, !3!G, !2!B, !1!E !1!G !1!A || !5!A,, !4!E, !3!A, !2!C !3!A, !4!E, | %52
 !5!^^C, !4!F, !3!A, !2!C !3!A, !4!F, | !6!=G,, !4!=D, !3!=G, !2!B, !3!G, !4!D, | %54
 !5!=C, !4!E, !3!=G, !2!B, !3!G, !4!E, | !6!F,, !5!C, !4!E, !3!A, !4!E, !5!C, | %56
 !5!B,, !4!F, !3!A, !3!B, !3!A, !4!F, | [!6!E,,!3!A,] !4!F, !3!G, !4!D, !4!E, !3!G, | %58
 !2!B, !3!G, !2!B, !1!E !1!G !1!B | !arpeggio![!6!C,!4!B,!3!E!2!G]6 | %60
 !arpeggio![!6!F,,!5!C,!4!E,!3!A,]6 | !arpeggio![!5!B,,!4!F,!3!A,]6 | [!4!F,!3!A,]2 !4!G,2 x2 |] %63
V:4
 !1!B6 | !1!B6 | !2!A/ !2!B/ !1!c- !1!c4- | !1!c6 | !2!A/ !1!B/ !1!c- !1!c4- | %5
 !2!c4- !1!c !1!B/ !2!A/ | !1!B6 | x4 x ((!1!A/ !1!G/) | !1!G6) | !1!F4- !1!F3/2 !1!E/ | !1!F6 | %11
 !1!E6 | !1!E6 | !2!E2 !1!F2 !2!D2 | !3!E6 | x6 | !1!e6 | !1!e4- !1!e !1!d/ !1!c/ | %18
 !1!c !1!d/ !1!e/ !1!d4 | x4 !1!c !1!B | !1!A6 | !2!A2 !1!B2 !2!F2 | !2!G6 | x6 || !1!G6 | !1!A6 | %26
 !1!^A6 | !1!B6 | !1!B6 | !1!e6 | [!6!B,,!5!F,!4!=C]2 x4 | x6 | x6 | x6 | x6 |[K:E] !6!_B,,4 x2 | %36
 x3 !6!F,,3 | !5!^^C,4 x2 | !4!=F,2 !4!_E, !5!_B,, !4!E, !4!F, | !4!^^F,6 | %40
 !4!^A,2 !4!G, !5!D, !4!G, !4!_B, |[K:E] !2!=B,6 | !2!B,4 x3/2 !2!C/ | !2!B,6 | %44
 !2!B,4 !2!B,3/2 !2!C/ | !2!B,6 | !3!B, !3!C !4!A, !4!G, !4!F, !4!E, | !4!E,6 | x2 x2 !4!D,2 | %49
 !4!E,2 x4 | x6 || !1!G6 | !1!F4- !1!F3/2 !1!E/ | !1!F6 | !1!E6 | !1!E6- | !1!E2 !1!F2 !2!D2 | %57
 !1!E6 | x6 | !1!d2 !1!e4 | !arpeggio!!2!D2 !2!E4 | !2!E !1!F/ !1!G/ !1!F2 !2!E2 | %62
 !fermata!!1!E6 |] %63
V:5
 x6 | x6 | x6 | x6 | x6 | x6 | x6 | x6 | x6 | x6 | x6 | x6 | x6 | x6 | E,6 | x6 | x6 | x6 | x6 | %19
 x6 | x6 | x6 | x6 | x6 || x6 | x6 | x6 | x6 | x6 | x6 | x6 | x6 | x6 | x6 | x6 |[K:E] x6 | x6 | %37
 x6 | x6 | x6 | x6 |[K:E] x6 | x6 | x6 | x6 | x6 | x6 | x6 | x6 | x6 | x6 || x6 | x6 | x6 | x6 | %55
 x6 | x6 | x6 | x6 | x6 | x6 | x6 | !fermata!E,6 |] %63
V:6
 x6 | x6 | x6 | x6 | x6 | x6 | x6 | x6 | x6 | x6 | x6 | x6 | x6 | x6 | !6!E,,6 | x6 | x6 | x6 | %18
 x6 | x6 | x6 | x6 | x6 | x6 || x6 | x6 | x6 | x6 | x6 | x6 | x6 | x6 | x6 | x6 | x6 |[K:E] x6 | %36
 x6 | x6 | x6 | x6 | x6 |[K:E] x6 | x6 | x6 | x6 | x6 | x6 | x6 | x6 | x6 | x6 || x6 | x6 | x6 | %54
 x6 | x6 | x6 | x6 | x6 | x6 | x6 | x6 | !fermata!!6!E,,6 |] %63
V:7
 x6 | x6 | x6 | x6 | x6 | x6 | x6 | x6 | x6 | x6 | x6 | x6 | x6 | x6 | x6 | x6 | x6 | x6 | x6 | %19
 x6 | x6 | x6 | x6 | x6 || x6 | x6 | x6 | x6 | x6 | x6 | x6 | x6 | x6 | x6 | x6 |[K:E] x6 | x6 | %37
 x6 | x6 | x6 | x6 |[K:E] x6 | x6 | x6 | x6 | x6 | x6 | x6 | x6 | x6 | x6 || x6 | x6 | x6 | x6 | %55
 x6 | x6 | x6 | x6 | x6 | x6 | x6 | x2 B4 |] %63
V:8
 x6 | x6 | x6 | x6 | x6 | x6 | x6 | x6 | x6 | x6 | x6 | x6 | x6 | x6 | x6 | x6 | x6 | x6 | x6 | %19
 x6 | x6 | x6 | x6 | x6 || x6 | x6 | x6 | x6 | x6 | x6 | x6 | x6 | x6 | x6 | x6 |[K:E] x6 | x6 | %37
 x6 | x6 | x6 | x6 |[K:E] x6 | x6 | x6 | x6 | x6 | x6 | x6 | x6 | x6 | x6 || x6 | x6 | x6 | x6 | %55
 x6 | x6 | x6 | x6 | x6 | x6 | x6 | x2 !3!B,4 |] %63

